X: 1
T: Down The Tannoch Road
M: 6/8
L: 1/8
R: jig
K: Dmaj
|:AFG A2d|c2B B2B|BEF G2c|B2 A A2 A|
AFG A2 d|e2B Bed|c2B ABc|1d3 d2B:|2d3 d2e||
|:f2d Adf|g2e Ace|f2d Adf|efd cBA|
f2d Adf|g2e Ace|faf gec|1edd d2e:|2edd d2B||
